X:0918
T:Craigie Burn Wood.
M:6/8
L:1/8
Q:3/8=60 "Slow"
I: :: ||
Z:Jack Campin * www.campin.me.uk * 2009
K:D
(d/>c/)| B>AG        ABd |e>fg d<BG     | {fa}g>fe  dBG |     A3 ({Bc}Hd2)
 d/c/  | B>AG        ABd |e>fg d<BG     |({fa}g>)fe d<BG|     A3 ({Bc}Hd2)||
 d     | e2f         g>ab|a>gf fed      |     e>ef  g>ab|({b}Ta3)     Hg2
 f/g/  |(ab/a/g/f/) Hg>fe|dBd Hg>a(b/a/)|     g>eg  d<BG|     A3  ({Bc}d2)|]
<end>
<start>
